X:1
T:Whosoever Shall Call
T:Whosoever Shall Call
T:Ira David Sankey
T:David A. Moxey, 1896
T:Public Domain Courtesy of the Cyber Hymnal™
T:Public Domain Courtesy of the Cyber Hymnal™
C:Ira David Sankey
Z:Public Domain
Z:Courtesy of the Cyber Hymnal™
%%score ( 1 2 ) ( 3 4 )
L:1/8
Q:1/4=113
M:3/4
K:G
V:1 treble 
V:2 treble 
V:3 bass 
V:4 bass 
V:1
 [DG]>[DA] | [GB]2 [Gc]2 [GB]2 | [GB]2 [DA]2 [DG]2 | [EG]2 [Ec]2 [Ge]2 | [Gd]4 [DB]>[Dc] | %5
w: 1.~“Who- so-|ev- er shall|call on the|name of the|Lord,” Who- so-|
w: 2.~“Who- so-|ev- er” means|me, “who- so-|ev- er” means|you, “Who- so-|
w: 3.~Bu- t|how shall I|call, then? By|faith with thy|heart, Un- to|
w: 4.~An- d|when shall I|call? Lo, the|mes- sage is|“Now”; An- d|
w: 5.~R- e-|demp- tion is|fin- ished— you’ve|on- ly to|ask; All the|
 [Gd]2 [GB]2 [FA]2 | G2 [DF]2 [DG]2 | [FA]4 ([FA]>[GB]) | [Ac]2 [^GB]2 [Ac]2 | [FA]2 [FB]2 [Fc]2 | %10
w: ev- er shall|call, “shall be|saved”; O *|hear the glad|mes- sage pro-|
w: ev- er” means|an- y- one|here; Then *|come un- to|Him with a|
w: all who thus|call He is|nigh; Nigh~to *|bless, and to|save, and His|
w: when will He|an- swer my|cry? The *|dy- ing thief|asked Him; the|
w: do- ing the|Sav- ior hath|done; Then~be- *|lieve, and re-|ceive what your|
 [Ge]2 [Gd]2 [G^c]2 | [Gd]4 ([DG]>[DA]) | [GB]2 [Gc]2 [GB]2 | [EA]2 E2 [DF]2 | [DG]4 || %15
w: claimed in the|Word, Three *|times from high|Heav- en ’tis|waved.|
w: pen- i- tent|heart, And *|call on His|name while He’s|near.|
w: Spir- it im-|part, And~to *|calm with His|love ev- ery|sigh.|
w: an- swer was|“Thou E’en~to- *|day shalt be|with Me” on|high.|
w: Fa- ther be-|stows Thro’~the *|won- der- ful|gift of His|Son.|
"^Refrain" [DG]>[DG] | [EG]2 [Ec]2 [Ec]2 | [Ec]2 [Ed]2 [Ge]2 | [Gd]2 [GB]2 [Gc]2 | %19
w: ||||
w: ||||
w: Lord, I|call, and I|mean it; I|call yet a-|
w: ||||
w: ||||
 [Gd]4 [GB]>[GB] | [FA]2 [FA]2 [FA]2 | [G^c]2 [GB]2 [GA]2 | [Fd]4 [DB]>[Dc] | %23
w: ||||
w: ||||
w: gain; I con-|fess Thee my|Sav- ior and|Lord; As I|
w: ||||
w: ||||
 [Gd]2 [G^c]2 [Gd]2 x6 | [GB]4 (AG) | [EG]2 [Ec]2 [Ge]2 | [Gd]4 G>[GA] | [GB]2 [Gc]2 [GB]2 | %28
w: |||||
w: |||||
w: do so, I’m|saved! God *|says it; A-|men! I be-|lieve Him and|
w: |||||
w: |||||
 [EA]2 E2 [DF]2 | [DG]4 |] %30
w: ||
w: ||
w: rest on His|Word.|
w: ||
w: ||
V:2
 x2 | x6 | x6 | x6 | x6 | x6 | G2 x4 | x6 | x6 | x6 | x6 | x6 | x6 | x2 E2 x2 | x4 || x2 | x6 | %17
 x6 | x6 | x6 | x6 | x6 | x6 | x12 | x4 =F2 | x6 | x4 G3/2 x/ | x6 | x2 E2 x2 | x4 |] %30
V:3
 [G,B,]>[G,C] | [G,D]2 [G,E]2 [G,D]2 | [G,D]2 [G,C]2 [G,B,]2 | [C,C]2 [C,G,]2 [C,C]2 | %4
 [G,B,]4 G,>[G,A,] | [G,B,]2 [G,D]2 [CD]2 | [B,D]2 [A,C]2 [G,B,]2 | [D,D]4 ([D,D]>[D,D]) | %8
 [D,D]2 [D,D]2 [D,D]2 | [D,C]2 [D,B,]2 [D,A,]2 | [G,C]2 [G,B,]2 [G,^A,]2 | [G,B,]4 ([G,B,]>[G,C]) | %12
 [G,D]2 [G,E]2 [G,D]2 | [C,C]2 [C,C]2 [C,C]2 | [G,B,]4 || [G,B,]>[G,B,] | [C,C]2 [C,G,]2 [C,G,]2 | %17
 [C,G,]2 [C,G,]2 [C,C]2 | [G,B,]2 [G,D]2 [G,A,]2 | [G,B,]4 [G,D]>[G,D] | [A,D]2 [A,D]2 [A,D]2 | %21
 [A,E]2 [A,D]2 [A,^C]2 | [D,D]4 G,>[G,A,] | [G,B,]2 [G,^A,]2 [G,B,]2 [G,D]4 [G,B,]2 | %24
 [C,C]2 [C,G,]2 [C,C]2 | [G,B,]4 [G,B,]>[G,C] | [G,D]2 [G,E]2 [G,D]2 | [C,C]2 [C,C]2 [D,C]2 | %28
 [G,,B,]4 x2 | x4 |] %30
V:4
 x2 | x6 | x6 | x6 | x4 G,3/2 x/ | x6 | x6 | x6 | x6 | x6 | x6 | x6 | x6 | x6 | x4 || x2 | x6 | %17
 x6 | x6 | x6 | x6 | x6 | x4 G,3/2 x/ | x12 | x6 | x6 | x6 | x6 | x6 | x4 |] %30

